X:1
T:The Rebels
M:6/8
L:1/8
K:G
 D| DEG G3/2 F/2 G| A3/2 B/2 AA G A/2A/2| B2 BB-A G| A2 A AGF| G2 G E2 D|\
D-E G G2 G| BBc dBB| eee d2 c| Bcd cef| gfe d2 B/2B/2| c2 g B2 g| AAA AG-A|\
 Bcd dBG| AAA AGF| G2 F E2 D|D-E G G2||

